X:18
T:score112
L:1/8
Q:1/4=96
M:3/4
I:linebreak $
K:G
 g3 e ge | f2 f2 z d | e3 B eB | d2 d2 ed |$ A2- AF/G/ AF | B2 B2 z G | D2- DD/E/ FD | G2- G2 z2 | %8
